X: 2066
T: A Scotch Tune
%R: reel
B: Henry Playford "Apollo's Banquet", London 1687 (5th Edition)
F: https://archive.org/details/apollosbanquetco01rugg
Z: 2017 John Chambers <jc:trillian.mit.edu>
N: The 3rd strain has only 7 bars.
N: Note at end: These Scotch Tunes were omitted in the First Part of this Book, and are to follow 121.
M: C|
L: 1/8
K: Am
% - - - - - - - - - -
zc |\
A3c (Ac)(AG) | F2 c4 (BA) |\
(GF)(GA) (BG)(AF) | D2 d4 (de) |\
f^g(ag) (ag)(fd) | (fd)(cA) f3F |\
(GF)(GA) (BG)(AF) | D2d2- d2 :|
|: zc |\
(AG)(Ac) (Ac)(AG) | (FG)(AB) c2(BA) |\
(GF)(GA) (cG)(AF) | D2d2- d2ae |\
(fF)(fg) (ag)(fd) | (cA)(cd) f3F |\
(FG)(AB) (cA)(GF) | D2d2- d2 :|
|: zc |\
(AG)(Ac) (Ac)(AG) | F2 f4 (ef) |\
(gf)(ga) (ga)(gf) |\
(dc)(df) (ga)(gd) | (fc)(dA) (fg)(fF) |\
(GF)(GA) (cG)(AF) | D2d2- d2 |]
% - - - - - - - - - -

%%sep 1 1 500
%%sep 1 1 500

